X: 29797
T: O'Carolan's Cottage
R: waltz
M: 3/4
K: Aminor
cB|A2 E2 AB|c4 BA|G2 dcBA|G4 cB|A2 E2 AB|
c4 cd|e2 fedf|e4 cd/e/|f2 gfed|e2 fedc|
fd eA dE|G4 c>B|A2 a2 g2|fe3 (3cde|c2 BA^GB|A4||
eg|ab ag e^g|a4 a/b/c'|ge de c'a|
g4 eg|ab ag e^g|a3b a/b/c'|c>B ce df|
e4 cd/e/|f2 gfed|e2 fedc|f>d eA dE|
G4 cB|A2 a2 g2|fe3 (3cde|c2 BA^GB|A4||

